X:3428
L:1/8
M:4/4
K:G
 D | G2 Bd (cA)FD | G2 Bd c2 cf | gdBd ecAc | BGAF G2 G :| d | g2 (f/g/a) gdBG | g2 (f/g/a) g2 b2 | 
 gdBd ecAc | BGAF G2 Bd | g2 (f/g/a) gdBG | g2 (f/g/a) g2 b2 | gdBd ceAc | (B/c/d) DF G2 G ||

